X: 2
T: The Pigeon On The Gate
R: reel
M: 4/4
L: 1/8
K: Edor
ag|e~A3 egag|~e2=fd edBF|G2ge dGBA|GBga bgag|e~A3 egag|~e2dg edBD|G2ga bgae|gedB ~A2ag|e~A3 egag|~e2dg edBD|G2ge dGBA|GBga bgag|e~A3 EABd|eAAG AGEF|G2ga bgae|gedB ~A2ag|eaae abag|ebae gbag|edd^c dega|bgae gbag|~e2ab (3c'ae ag|ebae gbag|edd^c dgba|gedB ~A2ag|e2ae aeag|ebae gbag|edd^c dega|bgae gbag|~e2ab (3c'ae ag|ebae gbag|edd^c dgba|gedB AGag|


Tune 517	Setting 13449

